X: 14087
T: Freshet, The
R: jig
M: 6/8
K: Dmixolydian
|:afa gec|ded ABc|dfd gfe|dAB c3|
afa gfe|dAB cec|cgc acg|edc d3:|
K:Ador
|:GBd edB|ABG ABe|GBd edB|ABG A2f|
gfg edB|ABG ABe|GdG eGd|BAG A3:|

